!!!OTL: Liangtiaobanqiang naogeming
!!!ARE: Asia, China,ÿJiangxi Yiyang
!! IV, 222
!!!SCT: C1799
!!!YEM: Copyright 1995, estate of Helmut Schaffrath.
**kern
*ICvox
*Ivox
*M2/4
*k[f#c#]
*D:
{8b
8a
8b
8dd
=1
8a
8b
4a}
=2
{8.a
16b
4dd
=3
8dd
16b
16dd
8ee
16dd
16b
=4
4a
4b}
=5
{8a
8b
8a
8f#
=6
8a
16b
16f#
4e}
=7
{8a
8b
8a
8f#
=8
4e
4f#}
=9
{8b
8a
8b
8dd
=10
8a
8b
4a}
=11
{8.a
16b
4dd
=12
8dd
16b
16dd
8ee
16dd
16b
=13
4a
4b}
=14
{8a
8b
8a
8f#
=15
8a
16b
16f#
4e}
=16
{8a
8b
8a
8f#
=17
4e
4f#}
==
!!!AGN: Xiaodiao
!!!AMT: simple duple
!!!AIN: vox
!!!EED: Helmut Schaffrath
!!!EEV: 1.0
*-
